src/assets/icons/zombies.svg

<svg xmlns="http://www.w3.org/2000/svg" height="48" width="48"><path d="M24 11.45q-.4 0-.7-.3-.3-.3-.3-.7 0-.45.3-.725.3-.275.7-.275.4 0 .7.275.3.275.3.725 0 .4-.3.7-.3.3-.7.3Zm4 0q-.4 0-.7-.3-.3-.3-.3-.7 0-.45.3-.725.3-.275.7-.275.4 0 .7.275.3.275.3.725 0 .4-.3.7-.3.3-.7.3Zm-8 0q-.4 0-.7-.3-.3-.3-.3-.7 0-.45.3-.725.3-.275.7-.275.4 0 .7.275.3.275.3.725 0 .4-.3.7-.3.3-.7.3Zm14 2q-.4 0-.7-.3-.3-.3-.3-.7 0-.45.3-.725.3-.275.7-.275.4 0 .7.275.3.275.3.725 0 .4-.3.7-.3.3-.7.3Zm-16 0q-.4 0-.7-.3-.3-.3-.3-.7 0-.45.3-.725.3-.275.7-.275.4 0 .7.275.3.275.3.725 0 .4-.3.7-.3.3-.7.3Zm-4 0q-.4 0-.7-.3-.3-.3-.3-.7 0-.45.3-.725.3-.275.7-.275.4 0 .7.275.3.275.3.725 0 .4-.3.7-.3.3-.7.3Zm8 0q-.4 0-.7-.3-.3-.3-.3-.7 0-.45.3-.725.3-.275.7-.275.4 0 .7.275.3.275.3.725 0 .4-.3.7-.3.3-.7.3Zm4 0q-.4 0-.7-.3-.3-.3-.3-.7 0-.45.3-.725.3-.275.7-.275.4 0 .7.275.3.275.3.725 0 .4-.3.7-.3.3-.7.3Zm4 0q-.4 0-.7-.3-.3-.3-.3-.7 0-.45.3-.725.3-.275.7-.275.4 0 .7.275.3.275.3.725 0 .4-.3.7-.3.3-.7.3Zm-6 2q-.4 0-.7-.3-.3-.3-.3-.7 0-.45.3-.725.3-.275.7-.275.4 0 .7.275.3.275.3.725 0 .4-.3.7-.3.3-.7.3Zm4 0q-.4 0-.7-.3-.3-.3-.3-.7 0-.45.3-.725.3-.275.7-.275.4 0 .7.275.3.275.3.725 0 .4-.3.7-.3.3-.7.3Zm4 0q-.4 0-.7-.3-.3-.3-.3-.7 0-.45.3-.725.3-.275.7-.275.4 0 .7.275.3.275.3.725 0 .4-.3.7-.3.3-.7.3Zm-12 0q-.4 0-.7-.3-.3-.3-.3-.7 0-.45.3-.725.3-.275.7-.275.4 0 .7.275.3.275.3.725 0 .4-.3.7-.3.3-.7.3Zm-4 0q-.4 0-.7-.3-.3-.3-.3-.7 0-.45.3-.725.3-.275.7-.275.4 0 .7.275.3.275.3.725 0 .4-.3.7-.3.3-.7.3Zm2 2q-.4 0-.7-.3-.3-.3-.3-.7 0-.45.3-.725.3-.275.7-.275.4 0 .7.275.3.275.3.725 0 .4-.3.7-.3.3-.7.3Zm-4 0q-.4 0-.7-.3-.3-.3-.3-.7 0-.45.3-.725.3-.275.7-.275.4 0 .7.275.3.275.3.725 0 .4-.3.7-.3.3-.7.3Zm8 0q-.4 0-.7-.3-.3-.3-.3-.7 0-.45.3-.725.3-.275.7-.275.4 0 .7.275.3.275.3.725 0 .4-.3.7-.3.3-.7.3Zm4 0q-.4 0-.7-.3-.3-.3-.3-.7 0-.45.3-.725.3-.275.7-.275.4 0 .7.275.3.275.3.725 0 .4-.3.7-.3.3-.7.3Zm4 0q-.4 0-.7-.3-.3-.3-.3-.7 0-.45.3-.725.3-.275.7-.275.4 0 .7.275.3.275.3.725 0 .4-.3.7-.3.3-.7.3Zm4 0q-.4 0-.7-.3-.3-.3-.3-.7 0-.45.3-.725.3-.275.7-.275.4 0 .7.275.3.275.3.725 0 .4-.3.7-.3.3-.7.3Zm-24 0q-.4 0-.7-.3-.3-.3-.3-.7 0-.45.3-.725.3-.275.7-.275.4 0 .7.275.3.275.3.725 0 .4-.3.7-.3.3-.7.3Zm2-2q-.4 0-.7-.3-.3-.3-.3-.7 0-.45.3-.725.3-.275.7-.275.4 0 .7.275.3.275.3.725 0 .4-.3.7-.3.3-.7.3Zm4-4q-.4 0-.7-.3-.3-.3-.3-.7 0-.45.3-.725.3-.275.7-.275.4 0 .7.275.3.275.3.725 0 .4-.3.7-.3.3-.7.3Zm2-2q-.4 0-.7-.3-.3-.3-.3-.7 0-.45.3-.725.3-.275.7-.275.4 0 .7.275.3.275.3.725 0 .4-.3.7-.3.3-.7.3Zm4 0q-.4 0-.7-.3-.3-.3-.3-.7 0-.45.3-.725.3-.275.7-.275.4 0 .7.275.3.275.3.725 0 .4-.3.7-.3.3-.7.3Zm4 0q-.4 0-.7-.3-.3-.3-.3-.7 0-.45.3-.725.3-.275.7-.275.4 0 .7.275.3.275.3.725 0 .4-.3.7-.3.3-.7.3Zm4 0q-.4 0-.7-.3-.3-.3-.3-.7 0-.45.3-.725.3-.275.7-.275.4 0 .7.275.3.275.3.725 0 .4-.3.7-.3.3-.7.3Zm2 2q-.4 0-.7-.3-.3-.3-.3-.7 0-.45.3-.725.3-.275.7-.275.4 0 .7.275.3.275.3.725 0 .4-.3.7-.3.3-.7.3Zm4 4q-.4 0-.7-.3-.3-.3-.3-.7 0-.45.3-.725.3-.275.7-.275.4 0 .7.275.3.275.3.725 0 .4-.3.7-.3.3-.7.3Zm2 2q-.4 0-.7-.3-.3-.3-.3-.7 0-.45.3-.725.3-.275.7-.275.4 0 .7.275.3.275.3.725 0 .4-.3.7-.3.3-.7.3Zm-20.1 11.5q-1.2 0-2-.8t-.8-2q0-1.2.8-2t2-.8q1.2 0 2 .8t.8 2q0 1.2-.8 2t-2 .8Zm12.25 0q-1.2 0-2-.8t-.8-2q0-1.2.8-2t2-.8q1.2 0 2.025.8t.825 2q0 1.2-.825 2t-2.025.8Zm-6.1 16.3q-4.4 0-8.275-1.675T9 39.025q-2.9-2.875-4.575-6.75Q2.75 28.4 2.75 24t1.675-8.275Q6.1 11.85 9 8.95q2.9-2.9 6.775-4.575Q19.65 2.7 24.05 2.7t8.275 1.675Q36.2 6.05 39.075 8.95q2.875 2.9 4.55 6.775Q45.3 19.6 45.3 24t-1.675 8.275q-1.675 3.875-4.55 6.75t-6.75 4.55Q28.45 45.25 24.05 45.25Zm-.05-4.7q6.9 0 11.75-4.8t4.85-11.7q0-7.05-4.775-11.825Q31.05 7.45 24 7.45q-6.95 0-11.725 4.775Q7.5 17 7.5 24.05q0 6.9 4.8 11.7 4.8 4.8 11.7 4.8Z"/></svg>

<?xml version="1.0" encoding="UTF-8" standalone="no"?>
<svg
   height="48"
   width="48"
   version="1.1"
   id="svg27"
   sodipodi:docname="zombies.svg"
   inkscape:version="1.2.1 (9c6d41e410, 2022-07-14)"
   xmlns:inkscape="http://www.inkscape.org/namespaces/inkscape"
   xmlns:sodipodi="http://sodipodi.sourceforge.net/DTD/sodipodi-0.dtd"
   xmlns="http://www.w3.org/2000/svg"
   xmlns:svg="http://www.w3.org/2000/svg">
  <defs
     id="defs31" />
  <sodipodi:namedview
     id="namedview29"
     pagecolor="#505050"
     bordercolor="#eeeeee"
     borderopacity="1"
     inkscape:showpageshadow="0"
     inkscape:pageopacity="0"
     inkscape:pagecheckerboard="0"
     inkscape:deskcolor="#505050"
     showgrid="false"
     inkscape:zoom="4.9166667"
     inkscape:cx="24"
     inkscape:cy="24.101695"
     inkscape:window-width="1500"
     inkscape:window-height="930"
     inkscape:window-x="-6"
     inkscape:window-y="-6"
     inkscape:window-maximized="1"
     inkscape:current-layer="svg27" />
  <path
     id="path25"
     d="m 24,11.45 q -0.4,0 -0.7,-0.3 Q 23,10.85 23,10.45 23,10 23.3,9.725 23.6,9.45 24,9.45 q 0.4,0 0.7,0.275 Q 25,10 25,10.45 q 0,0.4 -0.3,0.7 -0.3,0.3 -0.7,0.3 z m 4,0 q -0.4,0 -0.7,-0.3 Q 27,10.85 27,10.45 27,10 27.3,9.725 27.6,9.45 28,9.45 q 0.4,0 0.7,0.275 Q 29,10 29,10.45 q 0,0.4 -0.3,0.7 -0.3,0.3 -0.7,0.3 z m -8,0 q -0.4,0 -0.7,-0.3 Q 19,10.85 19,10.45 19,10 19.3,9.725 19.6,9.45 20,9.45 q 0.4,0 0.7,0.275 Q 21,10 21,10.45 q 0,0.4 -0.3,0.7 -0.3,0.3 -0.7,0.3 z m 14,2 q -0.4,0 -0.7,-0.3 Q 33,12.85 33,12.45 33,12 33.3,11.725 33.6,11.45 34,11.45 q 0.4,0 0.7,0.275 Q 35,12 35,12.45 q 0,0.4 -0.3,0.7 -0.3,0.3 -0.7,0.3 z m -16,0 q -0.4,0 -0.7,-0.3 Q 17,12.85 17,12.45 17,12 17.3,11.725 17.6,11.45 18,11.45 q 0.4,0 0.7,0.275 Q 19,12 19,12.45 q 0,0.4 -0.3,0.7 -0.3,0.3 -0.7,0.3 z m -4,0 q -0.4,0 -0.7,-0.3 Q 13,12.85 13,12.45 13,12 13.3,11.725 13.6,11.45 14,11.45 q 0.4,0 0.7,0.275 Q 15,12 15,12.45 q 0,0.4 -0.3,0.7 -0.3,0.3 -0.7,0.3 z m 8,0 q -0.4,0 -0.7,-0.3 Q 21,12.85 21,12.45 21,12 21.3,11.725 21.6,11.45 22,11.45 q 0.4,0 0.7,0.275 Q 23,12 23,12.45 q 0,0.4 -0.3,0.7 -0.3,0.3 -0.7,0.3 z m 4,0 q -0.4,0 -0.7,-0.3 Q 25,12.85 25,12.45 25,12 25.3,11.725 25.6,11.45 26,11.45 q 0.4,0 0.7,0.275 Q 27,12 27,12.45 q 0,0.4 -0.3,0.7 -0.3,0.3 -0.7,0.3 z m 4,0 q -0.4,0 -0.7,-0.3 Q 29,12.85 29,12.45 29,12 29.3,11.725 29.6,11.45 30,11.45 q 0.4,0 0.7,0.275 Q 31,12 31,12.45 q 0,0.4 -0.3,0.7 -0.3,0.3 -0.7,0.3 z m -6,2 q -0.4,0 -0.7,-0.3 Q 23,14.85 23,14.45 23,14 23.3,13.725 23.6,13.45 24,13.45 q 0.4,0 0.7,0.275 Q 25,14 25,14.45 q 0,0.4 -0.3,0.7 -0.3,0.3 -0.7,0.3 z m 4,0 q -0.4,0 -0.7,-0.3 Q 27,14.85 27,14.45 27,14 27.3,13.725 27.6,13.45 28,13.45 q 0.4,0 0.7,0.275 Q 29,14 29,14.45 q 0,0.4 -0.3,0.7 -0.3,0.3 -0.7,0.3 z m 4,0 q -0.4,0 -0.7,-0.3 Q 31,14.85 31,14.45 31,14 31.3,13.725 31.6,13.45 32,13.45 q 0.4,0 0.7,0.275 Q 33,14 33,14.45 q 0,0.4 -0.3,0.7 -0.3,0.3 -0.7,0.3 z m -12,0 q -0.4,0 -0.7,-0.3 Q 19,14.85 19,14.45 19,14 19.3,13.725 19.6,13.45 20,13.45 q 0.4,0 0.7,0.275 Q 21,14 21,14.45 q 0,0.4 -0.3,0.7 -0.3,0.3 -0.7,0.3 z m -4,0 q -0.4,0 -0.7,-0.3 Q 15,14.85 15,14.45 15,14 15.3,13.725 15.6,13.45 16,13.45 q 0.4,0 0.7,0.275 Q 17,14 17,14.45 q 0,0.4 -0.3,0.7 -0.3,0.3 -0.7,0.3 z m 2,2 q -0.4,0 -0.7,-0.3 Q 17,16.85 17,16.45 17,16 17.3,15.725 17.6,15.45 18,15.45 q 0.4,0 0.7,0.275 Q 19,16 19,16.45 q 0,0.4 -0.3,0.7 -0.3,0.3 -0.7,0.3 z m -4,0 q -0.4,0 -0.7,-0.3 Q 13,16.85 13,16.45 13,16 13.3,15.725 13.6,15.45 14,15.45 q 0.4,0 0.7,0.275 Q 15,16 15,16.45 q 0,0.4 -0.3,0.7 -0.3,0.3 -0.7,0.3 z m 8,0 q -0.4,0 -0.7,-0.3 Q 21,16.85 21,16.45 21,16 21.3,15.725 21.6,15.45 22,15.45 q 0.4,0 0.7,0.275 Q 23,16 23,16.45 q 0,0.4 -0.3,0.7 -0.3,0.3 -0.7,0.3 z m 4,0 q -0.4,0 -0.7,-0.3 Q 25,16.85 25,16.45 25,16 25.3,15.725 25.6,15.45 26,15.45 q 0.4,0 0.7,0.275 Q 27,16 27,16.45 q 0,0.4 -0.3,0.7 -0.3,0.3 -0.7,0.3 z m 4,0 q -0.4,0 -0.7,-0.3 Q 29,16.85 29,16.45 29,16 29.3,15.725 29.6,15.45 30,15.45 q 0.4,0 0.7,0.275 Q 31,16 31,16.45 q 0,0.4 -0.3,0.7 -0.3,0.3 -0.7,0.3 z m 4,0 q -0.4,0 -0.7,-0.3 Q 33,16.85 33,16.45 33,16 33.3,15.725 33.6,15.45 34,15.45 q 0.4,0 0.7,0.275 Q 35,16 35,16.45 q 0,0.4 -0.3,0.7 -0.3,0.3 -0.7,0.3 z m -24,0 q -0.4,0 -0.7,-0.3 Q 9,16.85 9,16.45 9,16 9.3,15.725 9.6,15.45 10,15.45 q 0.4,0 0.7,0.275 Q 11,16 11,16.45 q 0,0.4 -0.3,0.7 -0.3,0.3 -0.7,0.3 z m 2,-2 q -0.4,0 -0.7,-0.3 Q 11,14.85 11,14.45 11,14 11.3,13.725 11.6,13.45 12,13.45 q 0.4,0 0.7,0.275 Q 13,14 13,14.45 q 0,0.4 -0.3,0.7 -0.3,0.3 -0.7,0.3 z m 4,-4 q -0.4,0 -0.7,-0.3 Q 15,10.85 15,10.45 15,10 15.3,9.725 15.6,9.45 16,9.45 q 0.4,0 0.7,0.275 Q 17,10 17,10.45 q 0,0.4 -0.3,0.7 -0.3,0.3 -0.7,0.3 z m 2,-2 q -0.4,0 -0.7,-0.3 Q 17,8.85 17,8.45 17,8 17.3,7.725 17.6,7.45 18,7.45 q 0.4,0 0.7,0.275 Q 19,8 19,8.45 q 0,0.4 -0.3,0.7 -0.3,0.3 -0.7,0.3 z m 4,0 q -0.4,0 -0.7,-0.3 Q 21,8.85 21,8.45 21,8 21.3,7.725 21.6,7.45 22,7.45 q 0.4,0 0.7,0.275 Q 23,8 23,8.45 q 0,0.4 -0.3,0.7 -0.3,0.3 -0.7,0.3 z m 4,0 q -0.4,0 -0.7,-0.3 Q 25,8.85 25,8.45 25,8 25.3,7.725 25.6,7.45 26,7.45 q 0.4,0 0.7,0.275 Q 27,8 27,8.45 q 0,0.4 -0.3,0.7 -0.3,0.3 -0.7,0.3 z m 4,0 q -0.4,0 -0.7,-0.3 Q 29,8.85 29,8.45 29,8 29.3,7.725 29.6,7.45 30,7.45 q 0.4,0 0.7,0.275 Q 31,8 31,8.45 q 0,0.4 -0.3,0.7 -0.3,0.3 -0.7,0.3 z m 2,2 q -0.4,0 -0.7,-0.3 Q 31,10.85 31,10.45 31,10 31.3,9.725 31.6,9.45 32,9.45 q 0.4,0 0.7,0.275 Q 33,10 33,10.45 q 0,0.4 -0.3,0.7 -0.3,0.3 -0.7,0.3 z m 4,4 q -0.4,0 -0.7,-0.3 Q 35,14.85 35,14.45 35,14 35.3,13.725 35.6,13.45 36,13.45 q 0.4,0 0.7,0.275 Q 37,14 37,14.45 q 0,0.4 -0.3,0.7 -0.3,0.3 -0.7,0.3 z m 2,2 q -0.4,0 -0.7,-0.3 Q 37,16.85 37,16.45 37,16 37.3,15.725 37.6,15.45 38,15.45 q 0.4,0 0.7,0.275 Q 39,16 39,16.45 q 0,0.4 -0.3,0.7 -0.3,0.3 -0.7,0.3 z m -20.1,11.5 q -1.2,0 -2,-0.8 -0.8,-0.8 -0.8,-2 0,-1.2 0.8,-2 0.8,-0.8 2,-0.8 1.2,0 2,0.8 0.8,0.8 0.8,2 0,1.2 -0.8,2 -0.8,0.8 -2,0.8 z m 12.25,0 q -1.2,0 -2,-0.8 -0.8,-0.8 -0.8,-2 0,-1.2 0.8,-2 0.8,-0.8 2,-0.8 1.2,0 2.025,0.8 0.825,0.8 0.825,2 0,1.2 -0.825,2 -0.825,0.8 -2.025,0.8 z m -6.1,16.3 q -4.4,0 -8.275,-1.675 Q 11.9,41.9 9,39.025 6.1,36.15 4.425,32.275 2.75,28.4 2.75,24 2.75,19.6 4.425,15.725 6.1,11.85 9,8.95 11.9,6.05 15.775,4.375 19.65,2.7 24.05,2.7 q 4.4,0 8.275,1.675 3.875,1.675 6.75,4.575 2.875,2.9 4.55,6.775 Q 45.3,19.6 45.3,24 q 0,4.4 -1.675,8.275 -1.675,3.875 -4.55,6.75 Q 36.2,41.9 32.325,43.575 28.45,45.25 24.05,45.25 Z M 24,40.55 q 6.9,0 11.75,-4.8 4.85,-4.8 4.85,-11.7 Q 40.6,17 35.825,12.225 31.05,7.45 24,7.45 17.05,7.45 12.275,12.225 7.5,17 7.5,24.05 q 0,6.9 4.8,11.7 4.8,4.8 11.7,4.8 z" />
</svg>
